src/assets/selectIconsSpells/debuff_3.svg

<svg xmlns="http://www.w3.org/2000/svg" viewBox="0 0 512 512"><path d="M0 0h512v512H0z"/><path fill="#fff" d="M26.996 47.947c11.726 44.806 56.176 129.96 67.496 242.934-6.597 76.494-22.66 98.81-22.66 152.74 0 27.602 11.33 38.038 23.254 38.038 11.662 0 23.72-11.823 23.72-40.896 0-56.606-16.937-73.84-23.283-151.65 6.472-83.65 59.715-45.933 59.715 2.765 0-112.652 101.99-85.16 116.024-34.77-5.164 35.11-15.028 45.947-15.028 75.368 0 16.633 8.51 28.86 16.74 28.86 8.416 0 16.41-11.433 16.41-27.226 0-27.953-9.303-41.066-14.515-75.825 15.447-37.68 115.544-34.583 115.845-1.754-3.41 26.414-12.764 32.13-12.764 51.16 0 9.714 6.58 16.855 12.943 16.855 6.506 0 12.685-6.677 12.685-15.9 0-18.435-9.164-25.838-12.596-52.854 14.138-49.16 86.57-19.867 92.008-73.298-51.22 45.91-357.175 26.76-455.994-134.545zm128.85 266.22c-4.676 31.802-17.635 40.28-17.635 61.724 0 10.642 8.592 18.346 17.636 18.346 8.844 0 17.988-8.24 17.988-19.45 0-22.338-13.464-28.757-17.988-60.62z"/></svg>

<?xml version="1.0" encoding="UTF-8" standalone="no"?>
<!DOCTYPE svg PUBLIC "-//W3C//DTD SVG 1.1//EN" "http://www.w3.org/Graphics/SVG/1.1/DTD/svg11.dtd">
<svg width="100%" height="100%" viewBox="0 0 512 512" version="1.1" xmlns="http://www.w3.org/2000/svg" xmlns:xlink="http://www.w3.org/1999/xlink" xml:space="preserve" xmlns:serif="http://www.serif.com/" style="fill-rule:evenodd;clip-rule:evenodd;stroke-linejoin:round;stroke-miterlimit:2;">
    <rect x="0" y="0" width="512" height="512" style="fill-rule:nonzero;"/>
    <path d="M26.996,47.947C38.722,92.753 83.172,177.907 94.492,290.881C87.895,367.375 71.832,389.691 71.832,443.621C71.832,471.223 83.162,481.659 95.086,481.659C106.748,481.659 118.806,469.836 118.806,440.763C118.806,384.157 101.869,366.923 95.523,289.113C101.995,205.463 155.238,243.18 155.238,291.878C155.238,179.226 257.228,206.718 271.262,257.108C266.098,292.218 256.234,303.055 256.234,332.476C256.234,349.109 264.744,361.336 272.974,361.336C281.39,361.336 289.384,349.903 289.384,334.11C289.384,306.157 280.081,293.044 274.869,258.285C290.316,220.605 390.413,223.702 390.714,256.531C387.304,282.945 377.95,288.661 377.95,307.691C377.95,317.405 384.53,324.546 390.893,324.546C397.399,324.546 403.578,317.869 403.578,308.646C403.578,290.211 394.414,282.808 390.982,255.792C405.12,206.632 477.552,235.925 482.99,182.494C431.77,228.404 125.815,209.254 26.996,47.949L26.996,47.947ZM155.846,314.167C151.17,345.969 138.211,354.447 138.211,375.891C138.211,386.533 146.803,394.237 155.847,394.237C164.691,394.237 173.835,385.997 173.835,374.787C173.835,352.449 160.371,346.03 155.847,314.167L155.846,314.167Z" style="fill:rgb(242,19,19);fill-rule:nonzero;"/>
</svg>
